X: 13
T:Sadlers Wells
% Nottingham Music Database
S:Playford
M:6/4
L:1/4
K:Dm
%%MIDI gchord fzzczz
P:A
^c|"Dm"dAf "A7"eAg|"Dm"fed "A7"^c2A|"Dm"dAc "Gm"FBA|"Dm"FG2 "Am"A2=B|
"Am"cAe -"E7"e=Bc|"E7"d=BA ^G2E|"Dm"Afd "Am"eaA|"E7"Ec^G "Am"A2:|
P:B
c/2B/2|"F"AcF fcA|"Bb"dBA "Gm"G2A|"C7"BGE egc|"C7"BAB "F"A2"A7"^c|
"Dm"dAf "A7"eA^f|"A7"ge^c "Dm"def|"Dm"AGF "Gm"BAG|"A7"Af^c "Dm"d2:|


